X: 43424
T: Y Dyn Meddw
R: jig
M: 6/8
K: Gmajor
G2 D G2 D|G2 B BGD|F2 D F2 D|F2 A AFD|
G2 D G2 D|G2 B BGD|B2 e dBG|F2 A AFD:|
|:d2 B d2 B|BdB dBG|d2 A d2 A|AdA dAF|
B2 d dcB|e2 g gfe|dcB BAG|F2 A AFD:|
|:d2 g dBG|FAG AFD|d2 g dBG|F2 A AFD|
d2 g gfe|def gfe|dcB BAG|F2 A AFD:|

